svg/part/finger_tap_line.svg

<?xml version="1.0" encoding="UTF-8"?>
<svg width="24px" height="24px" viewBox="0 0 24 24" version="1.1" xmlns="http://www.w3.org/2000/svg" xmlns:xlink="http://www.w3.org/1999/xlink">
    <title>finger_tap_line</title>
    <g id="Icon" stroke="none" stroke-width="1" fill="none" fill-rule="evenodd">
        <g id="Part" transform="translate(-816.000000, 0.000000)" fill-rule="nonzero">
            <g id="finger_tap_line" transform="translate(816.000000, 0.000000)">
                <path d="M24,0 L24,24 L0,24 L0,0 L24,0 Z M12.5934901,23.257841 L12.5819402,23.2595131 L12.5108777,23.2950439 L12.4918791,23.2987469 L12.4918791,23.2987469 L12.4767152,23.2950439 L12.4056548,23.2595131 C12.3958229,23.2563662 12.3870493,23.2590235 12.3821421,23.2649074 L12.3780323,23.275831 L12.360941,23.7031097 L12.3658947,23.7234994 L12.3769048,23.7357139 L12.4804777,23.8096931 L12.4953491,23.8136134 L12.4953491,23.8136134 L12.5071152,23.8096931 L12.6106902,23.7357139 L12.6232938,23.7196733 L12.6232938,23.7196733 L12.6266527,23.7031097 L12.609561,23.275831 C12.6075724,23.2657013 12.6010112,23.2592993 12.5934901,23.257841 L12.5934901,23.257841 Z M12.8583906,23.1452862 L12.8445485,23.1473072 L12.6598443,23.2396597 L12.6498822,23.2499052 L12.6498822,23.2499052 L12.6471943,23.2611114 L12.6650943,23.6906389 L12.6699349,23.7034178 L12.6699349,23.7034178 L12.678386,23.7104931 L12.8793402,23.8032389 C12.8914285,23.8068999 12.9022333,23.8029875 12.9078286,23.7952264 L12.9118235,23.7811639 L12.8776777,23.1665331 C12.8752882,23.1545897 12.8674102,23.1470016 12.8583906,23.1452862 L12.8583906,23.1452862 Z M12.1430473,23.1473072 C12.1332178,23.1423925 12.1221763,23.1452606 12.1156365,23.1525954 L12.1099173,23.1665331 L12.0757714,23.7811639 C12.0751323,23.7926639 12.0828099,23.8018602 12.0926481,23.8045676 L12.108256,23.8032389 L12.3092106,23.7104931 L12.3186497,23.7024347 L12.3186497,23.7024347 L12.3225043,23.6906389 L12.340401,23.2611114 L12.337245,23.2485176 L12.337245,23.2485176 L12.3277531,23.2396597 L12.1430473,23.1473072 Z" id="MingCute"></path>
                <path d="M9.5,2 C10.825472,2 11.9100378,3.03153766 11.9946823,4.33562452 L12,4.5 L12,9.10496 L17.4417,9.70959 C19.3999733,9.927177 20.8972852,11.5344044 20.9949302,13.4824096 L21,13.6851 L21,14 C21,18.3349358 17.5521834,21.8645437 13.2491805,21.9961932 L13,22 L12.3262,22 C9.39075188,22 6.69933581,20.3933281 5.30197364,17.8288441 L5.17082,17.5777 L2.32918,11.8944 C1.96872,11.1735 2.23574,10.2109 3.07621,9.86637 C4.11853,9.43909 5.10993,9.35949 6.13058,9.87812 C6.35279,9.991055 6.57024688,10.12982 6.78545234,10.2918753 L7,10.4616 L7,4.5 C7,3.11929 8.11929,2 9.5,2 Z M9.5,4 C9.25454222,4 9.0503921,4.17687704 9.00805575,4.41012499 L9,4.5 L9,13 C9,13.4247 8.73175,13.8031 8.33101,13.9436 C7.93026,14.0842 7.48443,13.9563 7.21913,13.6247 L6.88759662,13.2184646 L6.88759662,13.2184646 L6.58472859,12.8644984 C6.0059325,12.206725 5.5836,11.843575 5.22456,11.6611 C5.01234857,11.5532714 4.80157714,11.4973122 4.53063848,11.5235758 L4.38987,11.5437 L6.95967,16.6833 C7.93973143,18.6434036 9.90655573,19.9073307 12.0834929,19.9951111 L12.3262,20 L13,20 C16.2383886,20 18.8775714,17.434417 18.9958615,14.2249377 L19,14 L19,13.6851 C19,12.7196368 18.3122404,11.9004673 17.3786915,11.721258 L17.2209,11.6974 L11.7791,11.0927 C10.8196053,10.9861211 10.081346,10.212156 10.0062924,9.2644373 L10,9.10496 L10,4.5 C10,4.22386 9.77614,4 9.5,4 Z M4,6 C4.55228,6 5,6.44772 5,7 C5,7.55228 4.55228,8 4,8 L3,8 C2.44772,8 2,7.55228 2,7 C2,6.44772 2.44772,6 3,6 L4,6 Z M16,5 C16.5523,5 17,5.44772 17,6 C17,6.51283143 16.613973,6.93550653 16.1166239,6.9932722 L16,7 L15,7 C14.4477,7 14,6.55228 14,6 C14,5.48716857 14.386027,5.06449347 14.8833761,5.0067278 L15,5 L16,5 Z M4.70711,1.29289 L5.70711,2.29289 C6.09763,2.68342 6.09763,3.31658 5.70711,3.70711 C5.31658,4.09763 4.68342,4.09763 4.29289,3.70711 L3.29289,2.70711 C2.90237,2.31658 2.90237,1.68342 3.29289,1.29289 C3.68342,0.902369 4.31658,0.902369 4.70711,1.29289 Z M15.7071,1.29289 C16.0976,1.68342 16.0976,2.31658 15.7071,2.70711 L14.7071,3.70711 C14.3166,4.09763 13.6834,4.09763 13.2929,3.70711 C12.9024,3.31658 12.9024,2.68342 13.2929,2.29289 L14.2929,1.29289 C14.6834,0.902369 15.3166,0.902369 15.7071,1.29289 Z" id="形状" fill="#09244B"></path>
            </g>
        </g>
    </g>
</svg>

<svg xmlns="http://www.w3.org/2000/svg" width="24" height="24"><g fill="none" fill-rule="nonzero"><path d="M24 0v24H0V0h24ZM12.593 23.258l-.011.002-.071.035-.02.004-.014-.004-.071-.035c-.01-.004-.019-.001-.024.005l-.004.01-.017.428.005.02.01.013.104.074.015.004.012-.004.104-.074.012-.016.004-.017-.017-.427c-.002-.01-.009-.017-.017-.018Zm.265-.113-.013.002-.185.093-.01.01-.003.011.018.43.005.012.008.007.201.093c.012.004.023 0 .029-.008l.004-.014-.034-.614c-.003-.012-.01-.02-.02-.022Zm-.715.002a.023.023 0 0 0-.027.006l-.006.014-.034.614c0 .012.007.02.017.024l.015-.002.201-.093.01-.008.004-.011.017-.43-.003-.012-.01-.01-.184-.092Z"/><path fill="#09244B" d="M9.5 2a2.5 2.5 0 0 1 2.495 2.336L12 4.5v4.605l5.442.605a4 4 0 0 1 3.553 3.772l.005.203V14a8 8 0 0 1-7.75 7.996L13 22h-.674a8 8 0 0 1-7.024-4.171l-.131-.251-2.842-5.684c-.36-.72-.093-1.683.747-2.028 1.043-.427 2.034-.507 3.055.012.222.113.44.252.654.414l.215.17V4.5A2.5 2.5 0 0 1 9.5 2Zm0 2a.5.5 0 0 0-.492.41L9 4.5V13a1 1 0 0 1-1.78.625l-.332-.407-.303-.354c-.58-.657-1.001-1.02-1.36-1.203a1.192 1.192 0 0 0-.694-.137l-.141.02 2.57 5.14a6 6 0 0 0 5.123 3.311l.243.005H13a6 6 0 0 0 5.996-5.775L19 14v-.315a2 2 0 0 0-1.621-1.964l-.158-.024-5.442-.604a2 2 0 0 1-1.773-1.829L10 9.105V4.5a.5.5 0 0 0-.5-.5ZM4 6a1 1 0 0 1 0 2H3a1 1 0 0 1 0-2h1Zm12-1a1 1 0 0 1 .117 1.993L16 7h-1a1 1 0 0 1-.117-1.993L15 5h1ZM4.707 1.293l1 1a1 1 0 0 1-1.414 1.414l-1-1a1 1 0 0 1 1.414-1.414Zm11 0a1 1 0 0 1 0 1.414l-1 1a1 1 0 1 1-1.414-1.414l1-1a1 1 0 0 1 1.414 0Z"/></g></svg>
